Sources/FrostedUI/Resources/Icons.xcassets/sun32.imageset/sun-32.svg

<svg width="32" height="32" viewBox="0 0 32 32" fill="none" xmlns="http://www.w3.org/2000/svg" data-fui-icon="true">
  <path
    d="M16 25C16.4142 25 16.75 25.3358 16.75 25.75V30.25C16.75 30.6642 16.4142 31 16 31C15.5858 31 15.25 30.6642 15.25 30.25V25.75C15.25 25.3358 15.5858 25 16 25ZM8.5752 22.3643C8.86809 22.0714 9.34285 22.0714 9.63574 22.3643C9.92863 22.6572 9.92864 23.1319 9.63574 23.4248L6.4541 26.6064C6.16121 26.8993 5.68645 26.8993 5.39355 26.6064C5.10066 26.3136 5.10066 25.8388 5.39355 25.5459L8.5752 22.3643ZM22.3643 22.3643C22.6572 22.0714 23.1319 22.0714 23.4248 22.3643L26.6064 25.5459C26.8993 25.8388 26.8993 26.3136 26.6064 26.6064C26.3136 26.8993 25.8388 26.8993 25.5459 26.6064L22.3643 23.4248C22.0714 23.1319 22.0714 22.6572 22.3643 22.3643ZM16 9.5C19.5899 9.5 22.5 12.4101 22.5 16C22.5 19.5899 19.5899 22.5 16 22.5C12.4101 22.5 9.5 19.5899 9.5 16C9.5 12.4101 12.4101 9.5 16 9.5ZM16 11C13.2386 11 11 13.2386 11 16C11 18.7614 13.2386 21 16 21C18.7614 21 21 18.7614 21 16C21 13.2386 18.7614 11 16 11ZM6.25 15.25C6.66421 15.25 7 15.5858 7 16C7 16.4142 6.66421 16.75 6.25 16.75H1.75C1.33579 16.75 1 16.4142 1 16C1 15.5858 1.33579 15.25 1.75 15.25H6.25ZM30.25 15.25C30.6642 15.25 31 15.5858 31 16C31 16.4142 30.6642 16.75 30.25 16.75H25.75C25.3358 16.75 25 16.4142 25 16C25 15.5858 25.3358 15.25 25.75 15.25H30.25ZM5.39355 5.39355C5.68645 5.10066 6.16121 5.10066 6.4541 5.39355L9.63574 8.5752C9.92864 8.86809 9.92864 9.34285 9.63574 9.63574C9.34285 9.92864 8.86809 9.92864 8.5752 9.63574L5.39355 6.4541C5.10066 6.16121 5.10066 5.68645 5.39355 5.39355ZM25.5459 5.39355C25.8388 5.10066 26.3136 5.10066 26.6064 5.39355C26.8993 5.68645 26.8993 6.16121 26.6064 6.4541L23.4248 9.63574C23.1319 9.92864 22.6572 9.92864 22.3643 9.63574C22.0714 9.34285 22.0714 8.86809 22.3643 8.5752L25.5459 5.39355ZM16 1C16.4142 1 16.75 1.33579 16.75 1.75V6.25C16.75 6.66421 16.4142 7 16 7C15.5858 7 15.25 6.66421 15.25 6.25V1.75C15.25 1.33579 15.5858 1 16 1Z"
    fill="currentColor"
  />
</svg>

<svg xmlns="http://www.w3.org/2000/svg" width="32" height="32" fill="none" data-fui-icon="true" viewBox="0 0 32 32"><path fill="currentColor" d="M16 25a.75.75 0 0 1 .75.75v4.5a.75.75 0 0 1-1.5 0v-4.5A.75.75 0 0 1 16 25m-7.425-2.636a.75.75 0 1 1 1.06 1.06l-3.18 3.182a.75.75 0 1 1-1.061-1.06zm13.79 0a.75.75 0 0 1 1.06 0l3.181 3.182a.75.75 0 1 1-1.06 1.06l-3.182-3.181a.75.75 0 0 1 0-1.06M16 9.5a6.5 6.5 0 1 1 0 13 6.5 6.5 0 0 1 0-13m0 1.5a5 5 0 1 0 0 10 5 5 0 0 0 0-10m-9.75 4.25a.75.75 0 0 1 0 1.5h-4.5a.75.75 0 0 1 0-1.5zm24 0a.75.75 0 0 1 0 1.5h-4.5a.75.75 0 0 1 0-1.5zM5.394 5.394a.75.75 0 0 1 1.06 0l3.182 3.181a.75.75 0 1 1-1.06 1.06l-3.182-3.18a.75.75 0 0 1 0-1.061m20.152 0a.75.75 0 1 1 1.06 1.06l-3.181 3.182a.75.75 0 1 1-1.06-1.06zM16 1a.75.75 0 0 1 .75.75v4.5a.75.75 0 0 1-1.5 0v-4.5A.75.75 0 0 1 16 1"/></svg>
